X:1
T:Variations on a Theme by Pacini - Dancla Op.89
T:Variations on a Theme by Pacini - Dancla Op.89
T:Charles Dancla
C:Charles Dancla
%%score 1 { ( 2 5 ) | ( 3 4 ) }
L:1/8
M:4/4
K:F
V:1 treble nm="Violin" snm="Vln."
V:2 treble nm="Piano" snm="Pno."
V:5 treble 
V:3 bass 
V:4 bass 
V:1
 z | z8 | z8 | z8 |"^flebile""_molto cantabile" !0!a4 (d7/2 e/) |!>(! (d4 !1!^c2)!>)! z2 | %6
 !2!b4 (!2!e7/2 f/) |!>(! (e4 d2)!>)! z2 | a2 (d'4 =c'2) |!>(! (c'3 b)!>)! (a2 b>a) | %10
 (!2!g2 a>g) (f2{gf} e>d) | !4!e2 (A4 !0!a2) | (!3!a4 (3a)(^ga (3!1!dfe) | %13
!>(! (d7/2 !1!^c/)!>)! c2 z2 | (!2!b4 (3b)a!4!g (3(gfe) |!>(! (e7/2 f/)!>)! d2 z2 | %16
"_cresc." !1!f4 (e2 !1!a!1!c') | (e'3 d') (c'3 .!3!c') | (c'=b)d'b (a2 !1!^g2) | %19
[K:A] !1!a2 z2 z (!2!c{/e}d>c) | (c4 c/)(B/!3!f/e/ !2!c/d/B/c/) | (A4 A)(!2!ec'e) | %22
 (!>!^d>c')(b>!1!f) (!>!a>g)(!>!e>!0!e') | %23
 .!1!a/!f!(a/c'/!4!e'/) .e'/(!0!e/a/c'/) .c'/(!2!c/e/a/) .a/(A/c/!4!e/) | %24
 .e/(E/A/c/) .c/(C/E/!4!A/) Aa/e/ c/A/E/C/ | A,2 z2 z4 | z8 | z8 | z8 |: %29
[K:F] z z/!mf!"^Theme""^fieramente" uc/ | vc z v=B z vc z vd z | vc z vf z va7/2 ua/ | %32
 (!>!b>a)(!>!a>g) (!>!g>f)(!>!f>!0!e) | (!2!e4 d2) z2 | %34
!>(! (!4!d'3 d/!>)!d'/)!>(! (c'3 d/!>)!c'/) | ((b2 b/)a/b/d'/) !2!g4 |{/a} vg z v^f z vg z va z | %37
 =f6 :| z z/ c/ | (!4!g2 f2) (e2 d2) | (!2!c3{/e} d) c4 | c2 d>!0!e (f2 a2) | (^f4 g2) c2 | %43
 (!>!!0!a>!4!g)(!>!g>f) (!>!f>e)(!>!e>d) | (!2!c3{/e} d) c4 | c2 d>!0!e (f2 _a2) | %46
 g2!>(! (!3!c'4 !2!c2)!>)! | vc z v=B z vc z vd z | vc z vf z va7/2 ua/ | %49
 (!>!b>a)(!>!a>g) (!>!g>f)(!>!f>!0!e) | (!2!e4 d2) z2 |!>(! (d'3 d/!>)!d'/)!>(! (c'3 d/!>)!c'/) | %52
 ((b2 b/)a/b/d'/) !2!g4 |{/a} vg z v^f z vg z va z | v=f6 z2 | z8 | z8 | z8 | z8 |: %59
[M:4/4][Q:1/4=80]"^Moderato""^Variation""_dolce e con eleganza" (d/c/d/c/ A/c/f/!1!a/) c'4 | %60
 (!1!B/A/B/A/ F/A/c/f/) a4 | (!>!!1!a>b) (!>!=b>c') (!>!d'>c') (!>!a>f) |!>(! (e3!>)! d) b2 z2 | %63
!f!"^marcato" D/^F/A/d/ F/A/!1!d/^f/ A/d/f/a/ d/f/a/d'/ | %64
 (b/a/b/d'/) (!2!g/^f/g/b/) (d/^c/d/g/) (B/A/B/d/) | %65
 (d/c/d/c/ b)(.b/.a/ .g/.f/.e/.d/ .c/.B/.A/.G/) | (F/E/F/A/ c/f/a/g/) f2 z2 :| %67
"^saltato" .g/.g/.g/.g/ .g/.^f/.a/.g/ .=f/.f/.f/.f/ .f/.e/.g/.f/ | %68
 .e/.e/.e/.e/ .e/.e/.!4!d'/.c'/!>(! .c'/.c'/.c'/.c'/ .c'/.c'/.c'/.c'/!>)! | %69
!f! (!>!c'2 =b/c'/d'/c'/) (_b/a/!2!g/f/ e/f/g/!1!a/) | %70
 (c'/b/!2!g/e/ c/B/G/F/) (!>!E!>!!1!G!>!_D!>!C) | %71
 .!2!g/.g/.g/.g/ .g/.^f/.a/.g/ .=f/.f/.f/.f/ .f/.e/.g/.f/ | %72
 .e/.e/.e/.e/ .e/.e/.d'/.c'/!>(! .c'/.c'/.c'/.c'/ .c'/.c'/.c'/.c'/!>)! | %73
!mf!!<(! ((!1!f2 f/)e/f/g/) ((b2 b/)_a/g/!f!f/)!<)! | %74
"_rall." !3!c' c'2!>(! (c' c'/)(=b/!4!_b/a/ g/f/e/d/)!>)! | %75
"^a tempo""_dolce"!f! (d/c/d/c/ A/c/f/!1!a/) c'4 | (!1!B/A/B/A/ F/A/c/f/) a4 | %77
 (!>!!1!a>b) (!>!=b>c') (!>!d'>c') (!>!a>f) |!>(! (e3 d)!>)! b2 z2 | %79
!f! ((!3!d2 d/)^c/d/_e/) ((d2 d/)^f/!1!a/d'/) | ((c'2 c'/)b/a/!2!g/) (^fg!4!!0!e'd') | %81
 ((d'2 d'/)c'/b/a/) (c'/b/!2!g/e/ c/B/G/E/) | (F/E/F/A/ c/f/a/g/) f2 z2 || %83
[Q:1/4=80] z"^Coda" (uA/B/ d/c/)(A/B/ d/c/)(A/B/ d/c/)(A/B/ | %84
 d/c/)(b/!>(!a/) (a/g/)(g/f/) (f/e/)(e/d/) (d/c/)(c/B/)!>)! | %85
!f! A(A/B/ d/c/)(A/B/ d/c/)(A/B/ d/c/)(A/B/ | %86
 d/c/)(.b/!>(!.a/) (.a/.g/)(.g/.f/) (.f/.e/)(.e/.d/) (.d/.c/)(.c/.B/)!>)! | %87
!f! A2 (.!4!c'/.!3!a/.f/.c/) B2 (.b/.g/.e/.B/) | A2 (.a/.f/.c/.A/) G2 (.g/.e/.c/.B/) | %89
 A(!3!c'/=b/ d'/c'/_b/a/) !4!g(b/a/ c'/b/a/!2!g/) | f(a/g/ b/a/g/f/) (e/b/g/e/) (c/B/G/E/) | %91
 (F/c/)c/c/{/e} (d/c/)c/c/ c/b/g/e/ c/B/G/E/ | (F/c/)c/!p!c/{/e} (d/c/)c/c/ c/b/g/e/ c/B/G/E/ | %93
 F!f!"_cresc."vC/C/ F/F/A/A/ c/c/F/F/ A/A/c/c/ | %94
 f/f/A/A/ c/c/!3!f/f/ (a/!1!c'/)c'/c'/ c'/f'/f'/f'/ | f'2 z3/2!f! u[Af]/ [Af]2 z3/2 F/ | %96
 !fermata!F6 z2 |] %97
V:2
 z/ [Adf]/ | [Adf]2 z3/2 [Bde]/ [Bde]2 z3/2 [EG^c]/ | [EG^c]2 z3/2 [DFd]/ [DFd]2 z3/2 [B,DE]/ | %3
 [B,DE]2 z3/2 [^CEA]/ [CEA]2 z2 | z (A,FD) z (A,FD) | z (A,GE) z (A,GE) | z (^CGE) z (A,GE) | %7
 z (A,FD) z (A,FD) | z (A,AD) z (A,AD) | z (DBG) z (A,FD) | z (A,G^C) z (A,FD) | %11
 (^CA)([A,C]A [=B,D]A[^CE]A) | z (A,FD) z (A,FD) | z (A,GE) z (A,G^C) | z (A,GE) z (^CGE) | %15
 z (A,FD) z (A,FD) | z (F^GA) z (EcA) | z (Ed^G) z (EcA) | z (DFD) (CE=B,E) |[K:A] (CEAE CEAE) | %20
 (DEGE DEGE) | (CEAE CEAE) | (^DFDF =DFDE) | C2"_cresc." [CEA]2 [CEA]2 [EAc]2 | %24
 [EAc]2 [Ace]2 [Ace]2 [cea]2 | [cea]2 z3/2!f! [CEA]/ [CEA]2 z3/2 [D=F_B]/ | %26
 [D=F_B]2 z3/2 [DF=B]/ [DFB]2 z3/2 [D=G=c]/ | [E=G=c]>[^FA][FA]>[G_B] [GB]>[^fa][fa]>[=g_b] | %28
 [=g_b]>[E=G_B=c] [EGBc]2 z4 |:[K:F] z z/ z/ | z2 [^G,=B,F] z [A,CF] z [_B,DF] z | %31
 z2 [A,CF]2 z2 [A,CF]2 | z2 [A,CF]2 z2 [A,CF]2 | z2 [B,DG]2 z2 [B,DG]2 | z2 [CD^F]2 z2 [CDA]2 | %35
 z2 [B,DG]2 z2 [B,DG]2 | z2 [B,CE]2 z2 [B,CE]2 | [A,CF] z [CFA] z [A,CF]2 :| z2 | G2 F2 E2 D2 | %40
 z8 | (A,CFC A,CFC) | (B,CEC B,CEC) | z [B,CG] z [A,CF] z [B,DE] z x | z2 z2 z2 z [G,B,E] | %45
 _A,CFC A,CFC | [G,CE]2 z2 z4 | z2 [^G,=B,F] z [A,CF] z [_B,DF] z | z2 [A,CF]2 z2 [A,CF]2 | %49
 z2 [A,CF]2 z2 [A,CF]2 | z2 [B,DG]2 z2 [B,DG]2 | z2 [CD^F]2 z2 [CDA]2 | z2 [B,DG]2 z2 [B,DG]2 | %53
 z2 [B,CE]2 z2 [B,CE]2 | z2 [A,CA] z [A,CF]!f! z!>(! (f>=d)!>)! | c2!>(! (d>A)!>)! B2 (c>G) | %56
 [FA]2 [FAf]2 [FBf]2 [F=Bf]2 | [Fcf](c'/=b/ d'/c'/_b/a/ g/f/e/d/ c/B/A/G/) | F2 [Acf]2 z4 |: %59
[M:4/4] z [A,CF][A,CF][A,CF] z [A,CF][A,CF][A,CF] | z [A,CF][A,CF][A,CF] z [A,CF][A,CF][A,CF] | %61
 z [A,CF][A,CF][A,CF] z [A,CF][A,CF][A,CF] | z [B,DG][B,DG][B,DG] z [B,DG][B,DG][B,DG] | %63
 [D^FA]2 z2 [FAd]2 z2 | [DGB]2 z2 [Bdg]2 z2 | [G,B,CE]2 z2 [EGBc]2 z2 | [CFA]2 z2 [Acf]2 z2 :| %67
 z [B,CG][B,CG][B,CG] z [A,CF][A,CF][A,CF] | z [G,B,E] z2 z4 | %69
 z [A,CF][A,CF][A,CF] z [A,CF][A,CF][A,CF] | z [G,B,E][G,B,E][G,B,E] z [G,B,E][G,B,E][G,B,E] | %71
 z [B,CG] z [B,CG] z [A,CF] z [A,CF] | z [G,B,E] z2 z4 | %73
 z [_A,CF][A,CF][A,CF] z [A,CF][A,CF][A,CF] | [G,CE]2 z2 z4 | %75
 z [A,CF][A,CF][A,CF] z [A,CF][A,CF][A,CF] | z [A,CF][A,CF][A,CF] z [A,CF][A,CF][A,CF] | %77
 z [A,CF] z [A,CF] z [A,CF] z [A,CF] | z [B,DG][B,DG][B,DG] z [B,DG][B,DG][B,DG] | %79
 z [CD^F][CDF][CDF] z [CDA][CDA][CDA] | z [B,DG][B,DG][B,DG] z [B,DG][B,DG][B,DG] | %81
 z [B,CE][B,CE][B,CE] z [B,CE][B,CE][B,CE] | z [A,CF][A,CF][A,CF] [A,CF]2 z2 || %83
 z [A,CF][A,CF][A,CF] z [A,CF][A,CF][A,CF] | z [B,CE][B,CE][B,CE] z [B,CE][B,CE][B,CE] | %85
 z [A,CF][A,CF][A,CF] z [A,CF][A,CF][A,CF] | z [B,CE][B,CE][B,CE] z [B,CE][B,CE][B,CE] | %87
 z [FAc] z [FAc] z [DGB] z [DGB] | z [CFA] z [CFA] z [CEG] z [CEG] | %89
 z [CFA] z [CFA] z [DGB] z [DGB] | z [CFA] z [CFA] z [CEG] z [CEG] | %91
 z [A,CF][A,CF][A,CF] z [G,B,CE][G,B,CE][G,B,CE] | %92
 z [A,CF][A,CF][A,CF] z [G,B,CE][G,B,CE][G,B,CE] | %93
 [A,C]/F/[A,C]/F/ [A,C]/F/[A,C]/F/ [A,C]/F/[A,C]/F/ [A,C]/F/[A,C]/F/ | %94
 [A,C]/F/[A,C]/F/ [A,C]/F/[A,C]/F/ [A,C]/F/[A,C]/F/ [A,C]/F/[A,C]/F/ | %95
 [A,CF]2 z3/2 [Acf]/ [Acf]2 z3/2 [A,CF]/ | !fermata![A,CF]6 z2 |] %97
V:3
 z/ D,/ | D,2 z3/2 G,,/ G,,2 z3/2 A,,/ | A,,2 z3/2 B,,/ B,,2 z3/2 G,,/ | G,,2 z3/2 A,,/ A,,2 z2 | %4
 (D,4 F,4) | E,4 E,4 | A,,4 ^C,4 | (D,4 D,,4) | F,4 ^F,4 | G,4 =F,4 | E,4 D,4 | A,,8 | (D,4 F,4) | %13
 (E,4 A,,4) | (^C,4 A,,4) | (D,4 D,,4) | D4 C4 | =B,4 A,4 | D,4 E,4 |[K:A] [A,,E,]8 | [A,,E,]8 | %21
 [A,,E,]8 | F,4 G,4 | [A,,A,]2 [A,,E,A,]2 [A,,E,A,]2 [A,,E,A,]2 | %24
 [A,,E,A,]2 [A,,E,A,]2 [A,,E,A,]2 [A,,E,A,]2 | [A,,E,A,]2 z3/2 A,/ A,2 z3/2 _A,/ | %26
 _A,2 z3/2 =G,/ G,2 z3/2 =C,/ | =C,>C,C,>C, C,>[C,C][C,C]>[C,C] | [=C,=C]>[C,E,=G,] [C,E,G,]2 z4 |: %29
[K:F] z z/ z/ | F,,2 z2 F,2 z2 | F,,2 z2 F,2 z2 | F,2 z2 F,2 z2 | B,,2 z2 B,,2 z2 | %34
 D,2 z2 ^F,2 z2 | G,2 z2 B,,2 z2 | C,2 z2 C,2 z2 | F,, z F, z F,,2 :| z2 | C,,2 C,2 C,,2 F,2 | %40
 [E,C]G,[F,D]_A, [^F,^D]=A,[G,E]B, | [F,,F,]8 | C,8 | C, z C, z C, z x [F,B,D] | %44
 z [E,G,C] z [F,_A,D] z [^F,=A,^D] z z | [F,,F,]8 | C,2 z2 z4 | F,,2 z2 F,2 z2 | F,2 z2 F,2 z2 | %49
 F,2 z2 F,2 z2 | B,,2 z2 B,,2 z2 | D,2 z2 ^F,2 z2 | G,2 z2 B,,2 z2 | C,2 z2 C,2 z2 | %54
 F, z F, z F,, z [DF]2 | [CF]2 [A,CD]2 [G,B,D]2 [G,B,C]2 | [F,A,C]2 [_E,_E]2 [D,D]2 [_D,_D]2 | %57
 [C,F,A,]4 [C,E,G,B,]4 | [F,A,]2 [F,,F,]2 z4 |:[M:4/4] F,,2 z2 F,2 z2 | F,,2 z2 F,2 z2 | %61
 F,, z F, z F,, z F, z | B,,2 z2 B,,2 z2 | [D,^F,A,]2 z2 [D,F,A,]2 z2 | %64
 [G,,B,,G,]2 z2 [G,,B,,G,]2 z2 | C,2 z2 [C,E,G,]2 z2 | [F,,F,]2 z2 [F,,F,]2 z2 :| C,2 z2 C,2 z2 | %68
 C, z z [E,B,C] z [F,B,D] z [G,B,E] | F,2 z2 F,2 z2 | C,2 z2 C,2 z2 | C, z C, z C, z C, z | %72
 C, z z [E,B,C] z [F,B,D] z [G,B,E] | F,2 z2 F,,2 z2 | C,2 z2 z4 | F,,2 z2 F,2 z2 | %76
 F,,2 z2 F,2 z2 | F,, z F, z F,, z F, z | B,,2 z2 B,,2 z2 | D,2 z2 ^F,2 z2 | G,2 z2 B,,2 z2 | %81
 C,2 z2 C,2 z2 | F,2 z2 [F,,F,]2 z2 || F,2 z2 F,2 z2 | C,2 z2 C,2 z2 | F,2 z2 F,2 z2 | %86
 C,2 z2 C,2 z2 | F, z F, z B,, z B,, z | C, z C, z C, z C, z | F, z F, z B,, z B,, z | %90
 C, z C, z C, z C, z | [F,,F,]2 z2 C,2 z2 | [F,,F,]2 z2 C,2 z2 | %93
 [F,,C,]/F,/[F,,C,]/F,/ [F,,C,]/F,/[F,,C,]/F,/ [F,,C,]/F,/[F,,C,]/F,/ [F,,C,]/F,/[F,,C,]/F,/ | %94
 [F,,C,]/F,/[F,,C,]/F,/ [F,,C,]/F,/[F,,C,]/F,/ [F,,C,]/F,/[F,,C,]/F,/ [F,,C,]/F,/[F,,C,]/F,/ | %95
 [F,,C,F,]2 z3/2 [F,F]/ [F,F]2 z3/2 [F,,F,]/ | !fermata![F,,F,]6 z2 |] %97
V:4
 x | x8 | x8 | x8 | x8 | x8 | x8 | x8 | x8 | x8 | x8 | x8 | x8 | x8 | x8 | x8 | x8 | x8 | x8 | %19
[K:A] x8 | x8 | x8 | A,,8 | x8 | x8 | x8 | x8 | x8 | x8 |:[K:F] x2 | x8 | x8 | x8 | x8 | x8 | x8 | %36
 x8 | x6 :| x2 | x6 C,2 | C,,2 C,2 C,,2 C,2 | x8 | x8 | x6 C, z | C,, z C, z C,, z C, z | x8 | x8 | %47
 x8 | x8 | x8 | x8 | x8 | x8 | x8 | x8 | x8 | x8 | x8 | x8 |:[M:4/4] x8 | x8 | x8 | x8 | x8 | x8 | %65
 x8 | x8 :| x8 | x2 C, x C, x C, x | x8 | x8 | x8 | x2 C, x C, x C, x | x8 | x8 | x8 | x8 | x8 | %78
 x8 | x8 | x8 | x8 | x8 || x8 | x8 | x8 | x8 | x8 | x8 | x8 | x8 | x8 | x8 | x8 | x8 | x8 | x8 |] %97
V:5
 x | x8 | x8 | x8 | x8 | x8 | x8 | x8 | x8 | x8 | x8 | x8 | x8 | x8 | x8 | x8 | x8 | x8 | x8 | %19
[K:A] x8 | x8 | x8 | x8 | x8 | x8 | x8 | x8 | x8 | x8 |:[K:F] x2 | x8 | x8 | x8 | x8 | x8 | x8 | %36
 x8 | x6 :| x2 | B,CA,C G,B,DB, | x8 | x8 | x8 | x8 | x8 | x8 | x8 | x8 | x8 | x8 | x8 | x8 | x8 | %53
 x8 | x6 ^G2 | A2 ^F2 G2 E2 | x8 | x8 | x8 |:[M:4/4] x8 | x8 | x8 | x8 | x8 | x8 | x8 | x8 :| x8 | %68
 x8 | x8 | x8 | x8 | x8 | x8 | x8 | x8 | x8 | x8 | x8 | x8 | x8 | x8 | x8 || x8 | x8 | x8 | x8 | %87
 x8 | x8 | x8 | x8 | x8 | x8 | x8 | x8 | x8 | x8 |] %97

